tools/download-figma-icons/icons/outlined-medium/package.svg

<svg width="24" height="24" viewBox="0 0 24 24" fill="none" xmlns="http://www.w3.org/2000/svg">
<path fill-rule="evenodd" clip-rule="evenodd" d="M12.75 22.0363V12.4633L22.5 7.58832V17.1613L12.75 22.0363ZM1.5 7.58832L11.25 12.4633V22.0363L1.5 17.1613V7.58832ZM12 1.58832L15.8925 3.53457L6.32025 8.32107L2.427 6.37482L12 1.58832ZM12 11.1613L7.99724 9.15957L17.5702 4.37307L21.573 6.37482L12 11.1613ZM23.9482 6.11531C23.9392 6.09206 23.9288 6.07106 23.9183 6.04931C23.8883 5.98631 23.8493 5.92856 23.802 5.87756C23.7908 5.86481 23.7817 5.84906 23.769 5.83631C23.715 5.78456 23.655 5.73881 23.5853 5.70431L12.3353 0.0793125C12.1245 -0.0264375 11.8755 -0.0264375 11.6648 0.0793125L0.41475 5.70431C0.345 5.73881 0.285 5.78456 0.231 5.83631C0.21825 5.84906 0.20925 5.86406 0.198 5.87681C0.15075 5.92856 0.11175 5.98631 0.08175 6.04931C0.07125 6.07106 0.06075 6.09206 0.05175 6.11531C0.021 6.19781 0 6.28406 0 6.37481V17.6248C0 17.9091 0.1605 18.1686 0.41475 18.2961L11.6648 23.9211C11.7698 23.9736 11.8853 23.9998 12 23.9998C12.1147 23.9998 12.2303 23.9736 12.3353 23.9211L23.5853 18.2961C23.8395 18.1686 24 17.9091 24 17.6248V6.37481C24 6.28406 23.979 6.19781 23.9482 6.11531Z" fill="black"/>
</svg>

<svg xmlns="http://www.w3.org/2000/svg" width="24" height="24" fill="none" viewBox="0 0 24 24"><path fill="currentColor" fill-rule="evenodd" d="M12.75 22.036v-9.573l9.75-4.875v9.573zM1.5 7.588l9.75 4.875v9.573L1.5 17.161zm10.5-6 3.893 1.947L6.32 8.32 2.427 6.375zm0 9.573L7.997 9.16l9.573-4.787 4.003 2.002zm11.948-5.046q-.014-.034-.03-.066a.7.7 0 0 0-.116-.171q-.015-.021-.033-.042a.7.7 0 0 0-.184-.132L12.335.08a.75.75 0 0 0-.67 0L.415 5.704a.7.7 0 0 0-.184.132q-.018.02-.033.04a.7.7 0 0 0-.116.173q-.016.032-.03.066a.7.7 0 0 0-.052.26v11.25c0 .284.16.544.415.671l11.25 5.625a.75.75 0 0 0 .67 0l11.25-5.625a.75.75 0 0 0 .415-.671V6.375a.7.7 0 0 0-.052-.26" clip-rule="evenodd"/></svg>
